icons/stethoscope-outline.svg

<svg width="24" height="24" viewBox="0 0 24 24" fill="none" xmlns="http://www.w3.org/2000/svg">
<path fill-rule="evenodd" clip-rule="evenodd" d="M19 8C19.56 8 20 8.43 20 9C20 9.26522 19.8946 9.51957 19.7071 9.70711C19.5196 9.89464 19.2652 10 19 10C18.43 10 18 9.55 18 9C18 8.43 18.43 8 19 8ZM4 2C2.667 2 2 2.667 2 4V11C2 13.96 4.19 16.5 7.14 16.91C7.76 19.92 10.42 22 13.5 22C14.3536 22 15.1988 21.8319 15.9874 21.5052C16.7761 21.1786 17.4926 20.6998 18.0962 20.0962C18.6998 19.4926 19.1786 18.7761 19.5052 17.9874C19.8319 17.1988 20 16.3536 20 15.5V11.81C21.16 11.39 22 10.29 22 9C22 8.20435 21.6839 7.44129 21.1213 6.87868C20.5587 6.31607 19.7956 6 19 6C18.2044 6 17.4413 6.31607 16.8787 6.87868C16.3161 7.44129 16 8.20435 16 9C16 10.29 16.84 11.4 18 11.81V15.41C18 17.91 16 19.91 13.5 19.91C11.5 19.91 9.82 18.7 9.22 16.9C12 16.3 14 13.8 14 11V4C14 2.667 13.333 2 12 2H11C10.333 2 10 2.333 10 3C10 3.667 10.333 4 11 4H12V11C12 12.0609 11.5786 13.0783 10.8284 13.8284C10.0783 14.5786 9.06087 15 8 15C6.93913 15 5.92172 14.5786 5.17157 13.8284C4.42143 13.0783 4 12.0609 4 11V4H5C5.667 4 6 3.667 6 3C6 2.333 5.667 2 5 2H4Z" fill="#3A3A47"/>
</svg>

<svg xmlns="http://www.w3.org/2000/svg" width="24" height="24" viewBox="0 0 24 24">
    <path fill="#3A3A47" fill-rule="evenodd" d="M19 8c.56 0 1 .43 1 1a1 1 0 0 1-1 1c-.57 0-1-.45-1-1 0-.57.43-1 1-1zM4 2c-1.333 0-2 .667-2 2v7c0 2.96 2.19 5.5 5.14 5.91.62 3.01 3.28 5.09 6.36 5.09a6.5 6.5 0 0 0 6.5-6.5v-3.69c1.16-.42 2-1.52 2-2.81a3 3 0 0 0-6 0c0 1.29.84 2.4 2 2.81v3.6c0 2.5-2 4.5-4.5 4.5-2 0-3.68-1.21-4.28-3.01C12 16.3 14 13.8 14 11V4c0-1.333-.667-2-2-2h-1c-.667 0-1 .333-1 1s.333 1 1 1h1v7a4 4 0 1 1-8 0V4h1c.667 0 1-.333 1-1s-.333-1-1-1H4z"/>
</svg>
